!!!OTL: STETS IN TRAUERN MUSS ICH LEBEN
!!!ARE: Europa, Mitteleuropa, Deutschland, Ober - Hessen, Obernburg
!!!ARD: Europa%Mitteleuropa%Deutschland@Ober-Hessen#Obernburg:
!!!ARL: 51.23/8.90:
!!!SCT: E0722B
!!!YEM: Copyright 1995, estate of Helmut Schaffrath.
**kern
*ICvox
*Ivox
*M3/4
*k[f#]
*G:
{8d
8d
=1
4g
4d
8e
8f#
=2
8g
8d
4B}
{8g
8b
=3
4a
8b
8a
8e
8a
=4
4d
4r}
{8d
8d
=5
8cc
8b
8a
8a
8g
8e
=6
8e
8d
4B}
{8d
8f#
=7
4g
4b
8a
8f#
=8
4g
4r}
==
!!!AGN: Liebes - Lied, Leid, Klage, Abschied
!!!ONB: ESAC (Essen Associative Code) Database: ERK2
!!!AMT: simple triple
!!!AIN: vox
!!!EED: Helmut Schaffrath
!!!EEV: 1.0
*-
